assets/Baseball/Flat/baseball_flat.svg

<svg width="32" height="32" viewBox="0 0 32 32" fill="none" xmlns="http://www.w3.org/2000/svg">
<path d="M16 1C7.71573 1 1 7.71573 1 16C1 24.2843 7.71573 31 16 31C24.2843 31 31 24.2843 31 16C31 7.71573 24.2843 1 16 1Z" fill="#9B9B9B"/>
<path d="M16 30C23.732 30 30 23.732 30 16C30 8.26801 23.732 2 16 2C8.26801 2 2 8.26801 2 16C2 23.732 8.26801 30 16 30Z" fill="#F4F4F4"/>
<path d="M29.9729 16.8805C29.9521 17.2157 29.9195 17.5477 29.8755 17.876C21.6325 16.9068 15.0935 10.3677 14.1242 2.12471C14.4526 2.08073 14.7846 2.04814 15.1197 2.02734C16.0428 9.7958 22.2044 15.9574 29.9729 16.8805ZM16.8805 29.9729C15.9574 22.2045 9.7958 16.0429 2.02734 15.1198C2.04814 14.7846 2.08073 14.4526 2.12471 14.1242C10.3677 15.0935 16.9068 21.6325 17.876 29.8755C17.5477 29.9195 17.2157 29.9521 16.8805 29.9729Z" fill="#636363"/>
<path d="M15.094 3.11009C14.9017 3.04876 14.6914 3.10907 14.5608 3.263L13.3946 4.63776C13.216 4.84834 13.2419 5.16386 13.4524 5.3425C13.663 5.52113 13.9785 5.49524 14.1572 5.28466L15.1078 4.16409L16.5077 4.61055C16.7708 4.69445 17.0521 4.54919 17.136 4.28611C17.2199 4.02302 17.0746 3.74173 16.8116 3.65783L15.094 3.11009ZM15.976 7.77834C16.0655 7.5974 16.255 7.488 16.4564 7.50099L18.2555 7.61702C18.531 7.63479 18.74 7.87259 18.7223 8.14816C18.7045 8.42373 18.4667 8.63272 18.1911 8.61495L16.7247 8.52037L16.0734 9.8376C15.951 10.0851 15.6511 10.1866 15.4036 10.0642C15.1561 9.94179 15.0546 9.64191 15.177 9.39437L15.976 7.77834ZM18.5706 11.5912C18.6102 11.3933 18.7649 11.2386 18.9628 11.199L20.7306 10.8455C21.0014 10.7913 21.2648 10.9669 21.3189 11.2377C21.3731 11.5085 21.1975 11.7719 20.9267 11.826L19.4858 12.1142L19.1976 13.5551C19.1435 13.8259 18.88 14.0015 18.6093 13.9474C18.3385 13.8932 18.1629 13.6298 18.217 13.359L18.5706 11.5912ZM22.4825 14.9831C22.4695 14.7817 22.5789 14.5922 22.7598 14.5027L24.3758 13.7037C24.6234 13.5813 24.9233 13.6827 25.0456 13.9303C25.168 14.1778 25.0666 14.4777 24.8191 14.6001L23.5018 15.2514L23.5964 16.7178C23.6142 16.9933 23.4052 17.2311 23.1296 17.2489C22.8541 17.2667 22.6163 17.0577 22.5985 16.7821L22.4825 14.9831ZM27.0986 16.5748C26.9534 16.7149 26.9066 16.9287 26.9801 17.1167L27.6364 18.7957C27.737 19.0529 28.027 19.1799 28.2842 19.0794C28.5413 18.9788 28.6683 18.6888 28.5678 18.4316L28.0328 17.0631L29.0904 16.0428C29.2891 15.8511 29.2948 15.5346 29.1031 15.3358C28.9114 15.1371 28.5948 15.1314 28.3961 15.3231L27.0986 16.5748Z" fill="#F8312F"/>
<path d="M3.14872 14.5275C3.00929 14.6735 2.9713 14.889 3.0524 15.0738L3.77674 16.7247C3.88769 16.9775 4.18262 17.0926 4.4355 16.9816C4.68837 16.8707 4.80342 16.5757 4.69247 16.3229L4.10206 14.9772L5.11709 13.9147C5.30784 13.715 5.3006 13.3985 5.10092 13.2078C4.90125 13.017 4.58475 13.0243 4.394 13.224L3.14872 14.5275ZM7.75083 16.5753C7.73784 16.3738 7.84724 16.1843 8.02818 16.0949L9.64421 15.2958C9.89174 15.1734 10.1916 15.2749 10.314 15.5224C10.4364 15.77 10.335 16.0699 10.0874 16.1922L8.77021 16.8435L8.86478 18.3099C8.88255 18.5855 8.67357 18.8233 8.398 18.8411C8.12243 18.8589 7.88463 18.6499 7.86686 18.3743L7.75083 16.5753ZM11.5702 19.3414C11.6097 19.1435 11.7645 18.9888 11.9624 18.9492L13.7302 18.5956C14.0009 18.5415 14.2644 18.7171 14.3185 18.9879C14.3727 19.2586 14.1971 19.5221 13.9263 19.5762L12.4854 19.8644L12.1972 21.3053C12.143 21.5761 11.8796 21.7517 11.6088 21.6975C11.3381 21.6434 11.1625 21.38 11.2166 21.1092L11.5702 19.3414ZM14.6006 22.7785C14.6901 22.5976 14.8796 22.4882 15.081 22.5012L16.88 22.6172C17.1556 22.635 17.3646 22.8728 17.3468 23.1483C17.3291 23.4239 17.0913 23.6329 16.8157 23.6151L15.3493 23.5206L14.698 24.8378C14.5756 25.0853 14.2757 25.1868 14.0282 25.0644C13.7806 24.942 13.6792 24.6421 13.8016 24.3945L14.6006 22.7785ZM17.0697 26.9088C16.8794 26.8417 16.6673 26.8956 16.5321 27.0455L15.325 28.3845C15.1401 28.5896 15.1564 28.9057 15.3615 29.0906C15.5666 29.2755 15.8828 29.2592 16.0677 29.0541L17.0516 27.9627L18.4375 28.4512C18.6979 28.5431 18.9835 28.4064 19.0753 28.1459C19.1671 27.8855 19.0304 27.5999 18.77 27.5081L17.0697 26.9088Z" fill="#F8312F"/>
</svg>

<svg xmlns="http://www.w3.org/2000/svg" width="32" height="32" fill="none"><path fill="#9B9B9B" d="M16 1C7.716 1 1 7.716 1 16c0 8.284 6.716 15 15 15 8.284 0 15-6.716 15-15 0-8.284-6.716-15-15-15Z"/><path fill="#F4F4F4" d="M16 30c7.732 0 14-6.268 14-14S23.732 2 16 2 2 8.268 2 16s6.268 14 14 14Z"/><path fill="#636363" d="M29.973 16.88c-.02.336-.053.668-.098.996-8.242-.97-14.781-7.508-15.75-15.751.328-.044.66-.077.995-.098.923 7.769 7.084 13.93 14.853 14.854ZM16.88 29.974c-.924-7.768-7.085-13.93-14.854-14.853.021-.335.054-.667.098-.996 8.243.97 14.782 7.508 15.751 15.751-.328.044-.66.077-.995.098Z"/><path fill="#F8312F" d="M15.094 3.11a.5.5 0 0 0-.533.153l-1.166 1.375a.5.5 0 0 0 .762.647l.95-1.12 1.4.446a.5.5 0 0 0 .305-.953l-1.718-.548Zm.882 4.668a.5.5 0 0 1 .48-.277l1.8.116a.5.5 0 0 1-.065.998l-1.466-.095-.652 1.318a.5.5 0 0 1-.896-.444l.799-1.616Zm2.595 3.813a.5.5 0 0 1 .392-.392l1.768-.354a.5.5 0 1 1 .196.981l-1.441.288-.288 1.441a.5.5 0 1 1-.981-.196l.354-1.768Zm3.912 3.392a.5.5 0 0 1 .277-.48l1.616-.8a.5.5 0 1 1 .443.897l-1.317.651.094 1.467a.5.5 0 0 1-.997.064l-.116-1.799Zm4.616 1.592a.5.5 0 0 0-.119.542l.656 1.679a.5.5 0 0 0 .932-.364l-.535-1.369 1.057-1.02a.5.5 0 0 0-.694-.72L27.1 16.575ZM3.149 14.527a.5.5 0 0 0-.097.547l.725 1.65a.5.5 0 0 0 .915-.401l-.59-1.346 1.015-1.062a.5.5 0 1 0-.723-.691l-1.245 1.303Zm4.602 2.048a.5.5 0 0 1 .277-.48l1.616-.8a.5.5 0 0 1 .443.897l-1.317.651.095 1.467a.5.5 0 0 1-.998.064l-.116-1.799Zm3.82 2.766a.5.5 0 0 1 .391-.392l1.768-.353a.5.5 0 0 1 .196.98l-1.44.288-.289 1.441a.5.5 0 0 1-.98-.196l.353-1.768Zm3.03 3.438a.5.5 0 0 1 .48-.278l1.799.116a.5.5 0 0 1-.064.998l-1.467-.094-.651 1.317a.5.5 0 1 1-.896-.444l.799-1.615Zm2.469 4.13a.5.5 0 0 0-.538.137l-1.207 1.338a.5.5 0 1 0 .743.67l.984-1.091 1.386.488a.5.5 0 1 0 .332-.943l-1.7-.6Z"/></svg>
